(Exported by FreeCAD)
(Post Processor: grbl_post)
(Output Time:2019-11-15 22:25:50.170065)
(begin preamble)
G17 G90
G21
(begin operation: Fixture)
(Path: Fixture)
G54
G0 Z6.0000
(finish operation: Fixture)
(begin operation: Default Tool)
(Path: Default Tool)
(Default Tool)
(begin toolchange)
; M6 T1
M3 S500.0000
(finish operation: Default Tool)
(begin operation: Helix)
(Path: Helix)
(Helix)
(helix cut operation)
G0 Z11.0000
G0 X111.0000 Y85.0000
G0 Z9.0000
G1 Z6.0000 F600.00
G2 X109.0000 Y85.0000 Z4.5000 I-1.0000 J0.0000 F600.00
G2 X111.0000 Y85.0000 Z3.0000 I1.0000 J0.0000 F600.00
G2 X109.0000 Y85.0000 Z1.5000 I-1.0000 J0.0000 F600.00
G2 X111.0000 Y85.0000 Z0.0000 I1.0000 J0.0000 F600.00
G2 X109.0000 Y85.0000 Z0.0000 I-1.0000 J0.0000 F600.00
G2 X111.0000 Y85.0000 Z0.0000 I1.0000 J0.0000 F600.00
G0 Z9.0000
G0 X91.0000 Y85.0000
G0 Z9.0000
G1 Z6.0000 F600.00
G2 X89.0000 Y85.0000 Z4.5000 I-1.0000 J0.0000 F600.00
G2 X91.0000 Y85.0000 Z3.0000 I1.0000 J0.0000 F600.00
G2 X89.0000 Y85.0000 Z1.5000 I-1.0000 J0.0000 F600.00
G2 X91.0000 Y85.0000 Z0.0000 I1.0000 J0.0000 F600.00
G2 X89.0000 Y85.0000 Z0.0000 I-1.0000 J0.0000 F600.00
G2 X91.0000 Y85.0000 Z0.0000 I1.0000 J0.0000 F600.00
G0 Z9.0000
G0 X51.0000 Y85.0000
G0 Z9.0000
G1 Z6.0000 F600.00
G2 X49.0000 Y85.0000 Z4.5000 I-1.0000 J0.0000 F600.00
G2 X51.0000 Y85.0000 Z3.0000 I1.0000 J0.0000 F600.00
G2 X49.0000 Y85.0000 Z1.5000 I-1.0000 J0.0000 F600.00
G2 X51.0000 Y85.0000 Z0.0000 I1.0000 J0.0000 F600.00
G2 X49.0000 Y85.0000 Z0.0000 I-1.0000 J0.0000 F600.00
G2 X51.0000 Y85.0000 Z0.0000 I1.0000 J0.0000 F600.00
G0 Z9.0000
G0 X41.0000 Y70.0000
G0 Z9.0000
G1 Z6.0000 F600.00
G2 X39.0000 Y70.0000 Z4.5000 I-1.0000 J0.0000 F600.00
G2 X41.0000 Y70.0000 Z3.0000 I1.0000 J0.0000 F600.00
G2 X39.0000 Y70.0000 Z1.5000 I-1.0000 J0.0000 F600.00
G2 X41.0000 Y70.0000 Z0.0000 I1.0000 J0.0000 F600.00
G2 X39.0000 Y70.0000 Z0.0000 I-1.0000 J0.0000 F600.00
G2 X41.0000 Y70.0000 Z0.0000 I1.0000 J0.0000 F600.00
G0 Z9.0000
G0 X21.0000 Y70.0000
G0 Z9.0000
G1 Z6.0000 F600.00
G2 X19.0000 Y70.0000 Z4.5000 I-1.0000 J0.0000 F600.00
G2 X21.0000 Y70.0000 Z3.0000 I1.0000 J0.0000 F600.00
G2 X19.0000 Y70.0000 Z1.5000 I-1.0000 J0.0000 F600.00
G2 X21.0000 Y70.0000 Z0.0000 I1.0000 J0.0000 F600.00
G2 X19.0000 Y70.0000 Z0.0000 I-1.0000 J0.0000 F600.00
G2 X21.0000 Y70.0000 Z0.0000 I1.0000 J0.0000 F600.00
G0 Z9.0000
G0 X11.0000 Y60.0000
G0 Z9.0000
G1 Z6.0000 F600.00
G2 X9.0000 Y60.0000 Z4.5000 I-1.0000 J0.0000 F600.00
G2 X11.0000 Y60.0000 Z3.0000 I1.0000 J0.0000 F600.00
G2 X9.0000 Y60.0000 Z1.5000 I-1.0000 J0.0000 F600.00
G2 X11.0000 Y60.0000 Z0.0000 I1.0000 J0.0000 F600.00
G2 X9.0000 Y60.0000 Z0.0000 I-1.0000 J0.0000 F600.00
G2 X11.0000 Y60.0000 Z0.0000 I1.0000 J0.0000 F600.00
G0 Z9.0000
G0 X61.0000 Y70.0000
G0 Z9.0000
G1 Z6.0000 F600.00
G2 X59.0000 Y70.0000 Z4.5000 I-1.0000 J0.0000 F600.00
G2 X61.0000 Y70.0000 Z3.0000 I1.0000 J0.0000 F600.00
G2 X59.0000 Y70.0000 Z1.5000 I-1.0000 J0.0000 F600.00
G2 X61.0000 Y70.0000 Z0.0000 I1.0000 J0.0000 F600.00
G2 X59.0000 Y70.0000 Z0.0000 I-1.0000 J0.0000 F600.00
G2 X61.0000 Y70.0000 Z0.0000 I1.0000 J0.0000 F600.00
G0 Z9.0000
G0 X81.0000 Y70.0000
G0 Z9.0000
G1 Z6.0000 F600.00
G2 X79.0000 Y70.0000 Z4.5000 I-1.0000 J0.0000 F600.00
G2 X81.0000 Y70.0000 Z3.0000 I1.0000 J0.0000 F600.00
G2 X79.0000 Y70.0000 Z1.5000 I-1.0000 J0.0000 F600.00
G2 X81.0000 Y70.0000 Z0.0000 I1.0000 J0.0000 F600.00
G2 X79.0000 Y70.0000 Z0.0000 I-1.0000 J0.0000 F600.00
G2 X81.0000 Y70.0000 Z0.0000 I1.0000 J0.0000 F600.00
G0 Z9.0000
G0 X71.0000 Y60.0000
G0 Z9.0000
G1 Z6.0000 F600.00
G2 X69.0000 Y60.0000 Z4.5000 I-1.0000 J0.0000 F600.00
G2 X71.0000 Y60.0000 Z3.0000 I1.0000 J0.0000 F600.00
G2 X69.0000 Y60.0000 Z1.5000 I-1.0000 J0.0000 F600.00
G2 X71.0000 Y60.0000 Z0.0000 I1.0000 J0.0000 F600.00
G2 X69.0000 Y60.0000 Z0.0000 I-1.0000 J0.0000 F600.00
G2 X71.0000 Y60.0000 Z0.0000 I1.0000 J0.0000 F600.00
G0 Z9.0000
G0 X71.0000 Y40.0000
G0 Z9.0000
G1 Z6.0000 F600.00
G2 X69.0000 Y40.0000 Z4.5000 I-1.0000 J0.0000 F600.00
G2 X71.0000 Y40.0000 Z3.0000 I1.0000 J0.0000 F600.00
G2 X69.0000 Y40.0000 Z1.5000 I-1.0000 J0.0000 F600.00
G2 X71.0000 Y40.0000 Z0.0000 I1.0000 J0.0000 F600.00
G2 X69.0000 Y40.0000 Z0.0000 I-1.0000 J0.0000 F600.00
G2 X71.0000 Y40.0000 Z0.0000 I1.0000 J0.0000 F600.00
G0 Z9.0000
G0 X71.0000 Y20.0000
G0 Z9.0000
G1 Z6.0000 F600.00
G2 X69.0000 Y20.0000 Z4.5000 I-1.0000 J0.0000 F600.00
G2 X71.0000 Y20.0000 Z3.0000 I1.0000 J0.0000 F600.00
G2 X69.0000 Y20.0000 Z1.5000 I-1.0000 J0.0000 F600.00
G2 X71.0000 Y20.0000 Z0.0000 I1.0000 J0.0000 F600.00
G2 X69.0000 Y20.0000 Z0.0000 I-1.0000 J0.0000 F600.00
G2 X71.0000 Y20.0000 Z0.0000 I1.0000 J0.0000 F600.00
G0 Z9.0000
G0 X61.0000 Y10.0000
G0 Z9.0000
G1 Z6.0000 F600.00
G2 X59.0000 Y10.0000 Z4.5000 I-1.0000 J0.0000 F600.00
G2 X61.0000 Y10.0000 Z3.0000 I1.0000 J0.0000 F600.00
G2 X59.0000 Y10.0000 Z1.5000 I-1.0000 J0.0000 F600.00
G2 X61.0000 Y10.0000 Z0.0000 I1.0000 J0.0000 F600.00
G2 X59.0000 Y10.0000 Z0.0000 I-1.0000 J0.0000 F600.00
G2 X61.0000 Y10.0000 Z0.0000 I1.0000 J0.0000 F600.00
G0 Z9.0000
G0 X41.0000 Y10.0000
G0 Z9.0000
G1 Z6.0000 F600.00
G2 X39.0000 Y10.0000 Z4.5000 I-1.0000 J0.0000 F600.00
G2 X41.0000 Y10.0000 Z3.0000 I1.0000 J0.0000 F600.00
G2 X39.0000 Y10.0000 Z1.5000 I-1.0000 J0.0000 F600.00
G2 X41.0000 Y10.0000 Z0.0000 I1.0000 J0.0000 F600.00
G2 X39.0000 Y10.0000 Z0.0000 I-1.0000 J0.0000 F600.00
G2 X41.0000 Y10.0000 Z0.0000 I1.0000 J0.0000 F600.00
G0 Z9.0000
G0 X21.0000 Y10.0000
G0 Z9.0000
G1 Z6.0000 F600.00
G2 X19.0000 Y10.0000 Z4.5000 I-1.0000 J0.0000 F600.00
G2 X21.0000 Y10.0000 Z3.0000 I1.0000 J0.0000 F600.00
G2 X19.0000 Y10.0000 Z1.5000 I-1.0000 J0.0000 F600.00
G2 X21.0000 Y10.0000 Z0.0000 I1.0000 J0.0000 F600.00
G2 X19.0000 Y10.0000 Z0.0000 I-1.0000 J0.0000 F600.00
G2 X21.0000 Y10.0000 Z0.0000 I1.0000 J0.0000 F600.00
G0 Z9.0000
G0 X11.0000 Y20.0000
G0 Z9.0000
G1 Z6.0000 F600.00
G2 X9.0000 Y20.0000 Z4.5000 I-1.0000 J0.0000 F600.00
G2 X11.0000 Y20.0000 Z3.0000 I1.0000 J0.0000 F600.00
G2 X9.0000 Y20.0000 Z1.5000 I-1.0000 J0.0000 F600.00
G2 X11.0000 Y20.0000 Z0.0000 I1.0000 J0.0000 F600.00
G2 X9.0000 Y20.0000 Z0.0000 I-1.0000 J0.0000 F600.00
G2 X11.0000 Y20.0000 Z0.0000 I1.0000 J0.0000 F600.00
G0 Z9.0000
G0 X11.0000 Y40.0000
G0 Z9.0000
G1 Z6.0000 F600.00
G2 X9.0000 Y40.0000 Z4.5000 I-1.0000 J0.0000 F600.00
G2 X11.0000 Y40.0000 Z3.0000 I1.0000 J0.0000 F600.00
G2 X9.0000 Y40.0000 Z1.5000 I-1.0000 J0.0000 F600.00
G2 X11.0000 Y40.0000 Z0.0000 I1.0000 J0.0000 F600.00
G2 X9.0000 Y40.0000 Z0.0000 I-1.0000 J0.0000 F600.00
G2 X11.0000 Y40.0000 Z0.0000 I1.0000 J0.0000 F600.00
G0 Z9.0000
G0 X81.0000 Y10.0000
G0 Z9.0000
G1 Z6.0000 F600.00
G2 X79.0000 Y10.0000 Z4.5000 I-1.0000 J0.0000 F600.00
G2 X81.0000 Y10.0000 Z3.0000 I1.0000 J0.0000 F600.00
G2 X79.0000 Y10.0000 Z1.5000 I-1.0000 J0.0000 F600.00
G2 X81.0000 Y10.0000 Z0.0000 I1.0000 J0.0000 F600.00
G2 X79.0000 Y10.0000 Z0.0000 I-1.0000 J0.0000 F600.00
G2 X81.0000 Y10.0000 Z0.0000 I1.0000 J0.0000 F600.00
G0 Z9.0000
G0 X101.0000 Y10.0000
G0 Z9.0000
G1 Z6.0000 F600.00
G2 X99.0000 Y10.0000 Z4.5000 I-1.0000 J0.0000 F600.00
G2 X101.0000 Y10.0000 Z3.0000 I1.0000 J0.0000 F600.00
G2 X99.0000 Y10.0000 Z1.5000 I-1.0000 J0.0000 F600.00
G2 X101.0000 Y10.0000 Z0.0000 I1.0000 J0.0000 F600.00
G2 X99.0000 Y10.0000 Z0.0000 I-1.0000 J0.0000 F600.00
G2 X101.0000 Y10.0000 Z0.0000 I1.0000 J0.0000 F600.00
G0 Z9.0000
G0 X121.0000 Y10.0000
G0 Z9.0000
G1 Z6.0000 F600.00
G2 X119.0000 Y10.0000 Z4.5000 I-1.0000 J0.0000 F600.00
G2 X121.0000 Y10.0000 Z3.0000 I1.0000 J0.0000 F600.00
G2 X119.0000 Y10.0000 Z1.5000 I-1.0000 J0.0000 F600.00
G2 X121.0000 Y10.0000 Z0.0000 I1.0000 J0.0000 F600.00
G2 X119.0000 Y10.0000 Z0.0000 I-1.0000 J0.0000 F600.00
G2 X121.0000 Y10.0000 Z0.0000 I1.0000 J0.0000 F600.00
G0 Z9.0000
G0 X131.0000 Y20.0000
G0 Z9.0000
G1 Z6.0000 F600.00
G2 X129.0000 Y20.0000 Z4.5000 I-1.0000 J0.0000 F600.00
G2 X131.0000 Y20.0000 Z3.0000 I1.0000 J0.0000 F600.00
G2 X129.0000 Y20.0000 Z1.5000 I-1.0000 J0.0000 F600.00
G2 X131.0000 Y20.0000 Z0.0000 I1.0000 J0.0000 F600.00
G2 X129.0000 Y20.0000 Z0.0000 I-1.0000 J0.0000 F600.00
G2 X131.0000 Y20.0000 Z0.0000 I1.0000 J0.0000 F600.00
G0 Z9.0000
G0 X131.0000 Y40.0000
G0 Z9.0000
G1 Z6.0000 F600.00
G2 X129.0000 Y40.0000 Z4.5000 I-1.0000 J0.0000 F600.00
G2 X131.0000 Y40.0000 Z3.0000 I1.0000 J0.0000 F600.00
G2 X129.0000 Y40.0000 Z1.5000 I-1.0000 J0.0000 F600.00
G2 X131.0000 Y40.0000 Z0.0000 I1.0000 J0.0000 F600.00
G2 X129.0000 Y40.0000 Z0.0000 I-1.0000 J0.0000 F600.00
G2 X131.0000 Y40.0000 Z0.0000 I1.0000 J0.0000 F600.00
G0 Z9.0000
G0 X131.0000 Y60.0000
G0 Z9.0000
G1 Z6.0000 F600.00
G2 X129.0000 Y60.0000 Z4.5000 I-1.0000 J0.0000 F600.00
G2 X131.0000 Y60.0000 Z3.0000 I1.0000 J0.0000 F600.00
G2 X129.0000 Y60.0000 Z1.5000 I-1.0000 J0.0000 F600.00
G2 X131.0000 Y60.0000 Z0.0000 I1.0000 J0.0000 F600.00
G2 X129.0000 Y60.0000 Z0.0000 I-1.0000 J0.0000 F600.00
G2 X131.0000 Y60.0000 Z0.0000 I1.0000 J0.0000 F600.00
G0 Z9.0000
G0 X121.0000 Y70.0000
G0 Z9.0000
G1 Z6.0000 F600.00
G2 X119.0000 Y70.0000 Z4.5000 I-1.0000 J0.0000 F600.00
G2 X121.0000 Y70.0000 Z3.0000 I1.0000 J0.0000 F600.00
G2 X119.0000 Y70.0000 Z1.5000 I-1.0000 J0.0000 F600.00
G2 X121.0000 Y70.0000 Z0.0000 I1.0000 J0.0000 F600.00
G2 X119.0000 Y70.0000 Z0.0000 I-1.0000 J0.0000 F600.00
G2 X121.0000 Y70.0000 Z0.0000 I1.0000 J0.0000 F600.00
G0 Z9.0000
G0 X101.0000 Y70.0000
G0 Z9.0000
G1 Z6.0000 F600.00
G2 X99.0000 Y70.0000 Z4.5000 I-1.0000 J0.0000 F600.00
G2 X101.0000 Y70.0000 Z3.0000 I1.0000 J0.0000 F600.00
G2 X99.0000 Y70.0000 Z1.5000 I-1.0000 J0.0000 F600.00
G2 X101.0000 Y70.0000 Z0.0000 I1.0000 J0.0000 F600.00
G2 X99.0000 Y70.0000 Z0.0000 I-1.0000 J0.0000 F600.00
G2 X101.0000 Y70.0000 Z0.0000 I1.0000 J0.0000 F600.00
G0 Z9.0000
G0 Z11.0000
(finish operation: Helix)
(begin postamble)
M5
G17 G90
; M2
